public/svg/profiles/playerme.svg

<?xml version="1.0" encoding="UTF-8" standalone="no"?>
<svg width="50px" height="50px" viewBox="0 0 50 50" version="1.1" xmlns="http://www.w3.org/2000/svg" xmlns:xlink="http://www.w3.org/1999/xlink">
    <defs></defs>
    <g id="Page-1" stroke="none" stroke-width="1" fill="none" fill-rule="evenodd">
        <g id="Group">
            <g>
                <rect id="Rectangle-path" fill="#262A34" x="0" y="0" width="50" height="50" rx="25"></rect>
                <path d="M25,9.00505102 C18.404593,9.00505102 13.0579592,14.5187671 13.0579592,21.3202806 L13.0579592,21.5096939 L13.0579592,21.5736735 L13.0579592,21.6915306 L13.0579592,21.7858163 L13.0579592,21.8245408 C13.3934694,30.7640051 22.4506122,41.9957908 22.4506122,41.9957908 L22.4506122,27.155051 C19.7270652,25.8941023 18.2605812,22.8115746 18.9603751,19.8186239 C19.660169,16.8256732 22.3277766,14.7711111 25.3092909,14.9287586 C28.2908053,15.0864062 30.740658,17.411554 31.1399495,20.4626189 C31.5392409,23.5136838 29.7747304,26.4253726 26.9404082,27.392449 L26.9404082,33.4721939 C33.0724913,32.4265414 37.4018079,26.7054514 36.8951769,20.3172014 C36.388546,13.9289514 31.2153482,9.00931115 25,9.00505102 L25,9.00505102 Z" id="Shape" fill="#694EA0"></path>
            </g>
        </g>
    </g>
</svg>

<svg width="50" height="50" viewBox="0 0 50 50" xmlns="http://www.w3.org/2000/svg"><g fill="none" fill-rule="evenodd"><rect fill="#262A34" width="50" height="50" rx="25"/><path d="M25 9.005c-6.595 0-11.942 5.514-11.942 12.315v.506c.335 8.938 9.393 20.17 9.393 20.17v-14.84c-2.723-1.262-4.19-4.344-3.49-7.337.7-2.994 3.368-5.05 6.35-4.89 2.98.156 5.43 2.482 5.83 5.533.4 3.05-1.365 5.962-4.2 6.93v6.08c6.132-1.046 10.462-6.768 9.955-13.156C36.39 13.93 31.215 9.01 25 9.005z" fill="#694EA0"/></g></svg>
